X: 116
T:Happy Meeting
% Nottingham Music Database
S:Lesley Dolman, via EF
Y:AB
M:6/8
K:G
P:A
|:d|"G"dBG GBd|"C"efg g2e|"G"dBG GAB|"Am"A3 -"D7"A2d|
"G"dBG GBd|"C"efg g2e|"G"dBG "D7"ABA|"G"G3 -G2:|
P:B
|:B/2c/2|"G"d2g gfg|"C"e2g gfg|"G"dBG GAB|"Am"A3 -"D7"A2d|
"G"dBG GBd|"C"efg g2e|"G"dBG "D7"ABA|"G"G3 -G2:|


